Numix-Light/16/status/indicator-keyboard-Ha-2.svg

<?xml version="1.0" encoding="UTF-8" standalone="no"?>
<svg
   xmlns:dc="http://purl.org/dc/elements/1.1/"
   xmlns:cc="http://creativecommons.org/ns#"
   xmlns:rdf="http://www.w3.org/1999/02/22-rdf-syntax-ns#"
   xmlns:svg="http://www.w3.org/2000/svg"
   xmlns="http://www.w3.org/2000/svg"
   xmlns:sodipodi="http://sodipodi.sourceforge.net/DTD/sodipodi-0.dtd"
   xmlns:inkscape="http://www.inkscape.org/namespaces/inkscape"
   viewBox="0 0 16 16"
   id="svg2"
   version="1.1"
   inkscape:version="0.91 r13725"
   sodipodi:docname="indicator-keyboard-Ha-2.svg">
  <metadata
     id="metadata14">
    <rdf:RDF>
      <cc:Work
         rdf:about="">
        <dc:format>image/svg+xml</dc:format>
        <dc:type
           rdf:resource="http://purl.org/dc/dcmitype/StillImage" />
      </cc:Work>
    </rdf:RDF>
  </metadata>
  <defs
     id="defs12" />
  <sodipodi:namedview
     pagecolor="#ffffff"
     bordercolor="#666666"
     borderopacity="1"
     objecttolerance="10"
     gridtolerance="10"
     guidetolerance="10"
     inkscape:pageopacity="0"
     inkscape:pageshadow="2"
     inkscape:window-width="640"
     inkscape:window-height="480"
     id="namedview10"
     showgrid="false"
     inkscape:zoom="14.75"
     inkscape:cx="8"
     inkscape:cy="8"
     inkscape:window-x="65"
     inkscape:window-y="24"
     inkscape:window-maximized="0"
     inkscape:current-layer="svg2" />
  <path
     style="fill:#353535;fill-opacity:1"
     d="M 1.5996094 0 C 0.71320937 2.9605947e-16 0 0.71320937 0 1.5996094 L 0 14.400391 C 2.9605947e-16 15.286791 0.71320937 16 1.5996094 16 L 14.400391 16 C 15.286791 16 16 15.286791 16 14.400391 L 16 1.5996094 C 16 0.71320937 15.286791 0 14.400391 0 L 1.5996094 0 z M 1.5957031 4.859375 L 2.2070312 4.859375 L 2.2070312 7.5683594 L 5.5917969 7.5683594 L 5.5917969 4.859375 L 6.203125 4.859375 L 6.203125 11.095703 L 5.5917969 11.095703 L 5.5917969 8.0996094 L 2.2070312 8.0996094 L 2.2070312 11.095703 L 1.5957031 11.095703 L 1.5957031 4.859375 z M 9.1953125 6.3359375 C 9.5013125 6.3359375 9.75875 6.3807031 9.96875 6.4707031 C 10.18475 6.5547031 10.360188 6.6740781 10.492188 6.8300781 C 10.624187 6.9800781 10.719297 7.1591406 10.779297 7.3691406 C 10.839297 7.5791406 10.869141 7.8086875 10.869141 8.0546875 L 10.869141 10.988281 C 10.809141 11.006281 10.721422 11.026781 10.607422 11.050781 C 10.493422 11.068781 10.362891 11.089281 10.212891 11.113281 C 10.062891 11.137281 9.8949844 11.155969 9.7089844 11.167969 C 9.5289844 11.185969 9.3423906 11.195313 9.1503906 11.195312 C 8.9043906 11.195312 8.6767969 11.167281 8.4667969 11.113281 C 8.2627969 11.059281 8.0817812 10.975328 7.9257812 10.861328 C 7.7757812 10.741328 7.6564063 10.592109 7.5664062 10.412109 C 7.4824063 10.226109 7.4394531 10.000328 7.4394531 9.7363281 C 7.4394531 9.4843281 7.4879844 9.2698437 7.5839844 9.0898438 C 7.6799844 8.9098438 7.8162344 8.7624375 7.9902344 8.6484375 C 8.1642344 8.5284375 8.3713281 8.4407187 8.6113281 8.3867188 C 8.8513281 8.3327188 9.1105781 8.3066406 9.3925781 8.3066406 C 9.4765781 8.3066406 9.5642969 8.3122187 9.6542969 8.3242188 C 9.7502969 8.3302187 9.8398281 8.341375 9.9238281 8.359375 C 10.013828 8.371375 10.088437 8.3862969 10.148438 8.4042969 C 10.214437 8.4162969 10.261156 8.4294063 10.285156 8.4414062 L 10.285156 8.1523438 C 10.285156 7.9903438 10.272047 7.8355469 10.248047 7.6855469 C 10.224047 7.5295469 10.169937 7.3914844 10.085938 7.2714844 C 10.007937 7.1454844 9.8941406 7.0466094 9.7441406 6.9746094 C 9.6001406 6.8966094 9.4079688 6.8574219 9.1679688 6.8574219 C 8.8259687 6.8574219 8.5722969 6.8816875 8.4042969 6.9296875 C 8.2362969 6.9776875 8.1131563 7.016875 8.0351562 7.046875 L 7.953125 6.5332031 C 8.055125 6.4852031 8.211875 6.4404375 8.421875 6.3984375 C 8.637875 6.3564375 8.8953125 6.3359375 9.1953125 6.3359375 z M 13.076172 8.7539062 C 13.470072 8.7539062 13.765944 8.851875 13.964844 9.046875 C 14.163744 9.237975 14.263672 9.5044563 14.263672 9.8476562 C 14.263672 9.9997563 14.236241 10.14475 14.181641 10.28125 C 14.127041 10.41385 14.052584 10.543169 13.958984 10.667969 C 13.869284 10.792769 13.767391 10.912297 13.650391 11.029297 C 13.533391 11.146297 13.413869 11.263859 13.292969 11.380859 C 13.191569 11.478359 13.091641 11.578288 12.994141 11.679688 C 12.900541 11.777188 12.814328 11.877116 12.736328 11.978516 C 12.662228 12.076016 12.603441 12.172031 12.556641 12.269531 C 12.513741 12.363131 12.492187 12.457181 12.492188 12.550781 L 12.492188 12.5625 L 14.404297 12.5625 L 14.404297 12.896484 L 12.070312 12.896484 C 12.070312 12.888684 12.068386 12.874969 12.064453 12.855469 L 12.064453 12.755859 C 12.064453 12.572559 12.097762 12.402094 12.164062 12.246094 C 12.230363 12.086194 12.314616 11.937275 12.416016 11.796875 C 12.521316 11.656475 12.634966 11.525197 12.759766 11.404297 C 12.888466 11.283397 13.011906 11.165834 13.128906 11.052734 C 13.226406 10.959134 13.318497 10.869003 13.404297 10.783203 C 13.493997 10.693503 13.572372 10.603366 13.638672 10.509766 C 13.704972 10.416166 13.755922 10.316237 13.794922 10.210938 C 13.833922 10.105638 13.853516 9.9900344 13.853516 9.8652344 C 13.853516 9.5922344 13.781013 9.39825 13.632812 9.28125 C 13.488512 9.16035 13.304331 9.0996094 13.082031 9.0996094 C 12.957231 9.0996094 12.845547 9.1152844 12.748047 9.1464844 C 12.650547 9.1776844 12.566287 9.2149125 12.492188 9.2578125 C 12.421987 9.2968125 12.361247 9.3379594 12.310547 9.3808594 C 12.259847 9.4237594 12.222619 9.4570688 12.199219 9.4804688 L 12 9.2167969 C 12.0234 9.1894969 12.064547 9.1503094 12.123047 9.0996094 C 12.185447 9.0450094 12.261862 8.9921062 12.351562 8.9414062 C 12.445163 8.8907063 12.550975 8.8476 12.671875 8.8125 C 12.792775 8.7735 12.927972 8.7539063 13.076172 8.7539062 z M 9.375 8.8105469 C 9.231 8.8105469 9.0817813 8.8217031 8.9257812 8.8457031 C 8.7697812 8.8637031 8.6261406 8.9084687 8.4941406 8.9804688 C 8.3621406 9.0464687 8.2539219 9.1397656 8.1699219 9.2597656 C 8.0859219 9.3797656 8.0429687 9.5383281 8.0429688 9.7363281 C 8.0429688 9.9103281 8.071 10.057734 8.125 10.177734 C 8.185 10.297734 8.2651875 10.394797 8.3671875 10.466797 C 8.4751875 10.538797 8.6020938 10.592906 8.7460938 10.628906 C 8.8960937 10.658906 9.064 10.673828 9.25 10.673828 C 9.478 10.673828 9.67575 10.666297 9.84375 10.654297 C 10.01775 10.636297 10.165156 10.615797 10.285156 10.591797 L 10.285156 8.953125 C 10.219156 8.923125 10.11275 8.8932812 9.96875 8.8632812 C 9.82475 8.8272812 9.627 8.8105469 9.375 8.8105469 z "
     id="path4" />
</svg>

<svg xmlns="http://www.w3.org/2000/svg" viewBox="0 0 16 16">
 <path d="m 1.6 0 c -0.886 0 -1.6 0.713 -1.6 1.6 l 0 12.801 c 0 0.886 0.713 1.6 1.6 1.6 l 12.801 0 c 0.886 0 1.6 -0.713 1.6 -1.6 l 0 -12.801 c 0 -0.886 -0.713 -1.6 -1.6 -1.6 l -12.801 0 z m -0.004 4.859 l 0.611 0 l 0 2.709 l 3.385 0 l 0 -2.709 l 0.611 0 l 0 6.236 l -0.611 0 l 0 -2.996 l -3.385 0 l 0 2.996 l -0.611 0 l 0 -6.236 z m 7.6 1.477 c 0.306 0 0.563 0.045 0.773 0.135 c 0.216 0.084 0.391 0.203 0.523 0.359 c 0.132 0.15 0.227 0.329 0.287 0.539 c 0.06 0.21 0.09 0.44 0.09 0.686 l 0 2.934 c -0.06 0.018 -0.148 0.038 -0.262 0.063 c -0.114 0.018 -0.245 0.038 -0.395 0.063 c -0.15 0.024 -0.318 0.043 -0.504 0.055 c -0.18 0.018 -0.367 0.027 -0.559 0.027 c -0.246 0 -0.474 -0.028 -0.684 -0.082 c -0.204 -0.054 -0.385 -0.138 -0.541 -0.252 c -0.15 -0.12 -0.269 -0.269 -0.359 -0.449 c -0.084 -0.186 -0.127 -0.412 -0.127 -0.676 c 0 -0.252 0.049 -0.466 0.145 -0.646 c 0.096 -0.18 0.232 -0.327 0.406 -0.441 c 0.174 -0.12 0.381 -0.208 0.621 -0.262 c 0.24 -0.054 0.499 -0.08 0.781 -0.08 c 0.084 0 0.172 0.006 0.262 0.018 c 0.096 0.006 0.186 0.017 0.27 0.035 c 0.09 0.012 0.165 0.027 0.225 0.045 c 0.066 0.012 0.113 0.025 0.137 0.037 l 0 -0.289 c 0 -0.162 -0.013 -0.317 -0.037 -0.467 c -0.024 -0.156 -0.078 -0.294 -0.162 -0.414 c -0.078 -0.126 -0.192 -0.225 -0.342 -0.297 c -0.144 -0.078 -0.336 -0.117 -0.576 -0.117 c -0.342 0 -0.596 0.024 -0.764 0.072 c -0.168 0.048 -0.291 0.087 -0.369 0.117 l -0.082 -0.514 c 0.102 -0.048 0.259 -0.093 0.469 -0.135 c 0.216 -0.042 0.473 -0.063 0.773 -0.063 z m 3.881 2.418 c 0.394 0 0.69 0.098 0.889 0.293 c 0.199 0.191 0.299 0.458 0.299 0.801 c 0 0.152 -0.027 0.297 -0.082 0.434 c -0.055 0.133 -0.129 0.262 -0.223 0.387 c -0.09 0.125 -0.192 0.244 -0.309 0.361 c -0.117 0.117 -0.237 0.235 -0.357 0.352 c -0.101 0.098 -0.201 0.197 -0.299 0.299 c -0.094 0.098 -0.18 0.197 -0.258 0.299 c -0.074 0.097 -0.133 0.194 -0.18 0.291 c -0.043 0.094 -0.064 0.188 -0.064 0.281 l 0 0.012 l 1.912 0 l 0 0.334 l -2.334 0 c 0 -0.008 -0.002 -0.022 -0.006 -0.041 l 0 -0.1 c 0 -0.183 0.033 -0.354 0.1 -0.51 c 0.066 -0.16 0.151 -0.309 0.252 -0.449 c 0.105 -0.14 0.219 -0.272 0.344 -0.393 c 0.129 -0.121 0.252 -0.238 0.369 -0.352 c 0.098 -0.094 0.19 -0.184 0.275 -0.27 c 0.09 -0.09 0.168 -0.18 0.234 -0.273 c 0.066 -0.094 0.117 -0.194 0.156 -0.299 c 0.039 -0.105 0.059 -0.221 0.059 -0.346 c 0 -0.273 -0.073 -0.467 -0.221 -0.584 c -0.144 -0.121 -0.328 -0.182 -0.551 -0.182 c -0.125 0 -0.236 0.016 -0.334 0.047 c -0.098 0.031 -0.182 0.068 -0.256 0.111 c -0.07 0.039 -0.131 0.08 -0.182 0.123 c -0.051 0.043 -0.088 0.076 -0.111 0.1 l -0.199 -0.264 c 0.023 -0.027 0.065 -0.066 0.123 -0.117 c 0.062 -0.055 0.139 -0.108 0.229 -0.158 c 0.094 -0.051 0.199 -0.094 0.32 -0.129 c 0.121 -0.039 0.256 -0.059 0.404 -0.059 z m -3.701 0.057 c -0.144 0 -0.293 0.011 -0.449 0.035 c -0.156 0.018 -0.3 0.063 -0.432 0.135 c -0.132 0.066 -0.24 0.159 -0.324 0.279 c -0.084 0.12 -0.127 0.279 -0.127 0.477 c 0 0.174 0.028 0.321 0.082 0.441 c 0.06 0.12 0.14 0.217 0.242 0.289 c 0.108 0.072 0.235 0.126 0.379 0.162 c 0.15 0.03 0.318 0.045 0.504 0.045 c 0.228 0 0.426 -0.008 0.594 -0.02 c 0.174 -0.018 0.321 -0.038 0.441 -0.063 l 0 -1.639 c -0.066 -0.03 -0.172 -0.06 -0.316 -0.09 c -0.144 -0.036 -0.342 -0.053 -0.594 -0.053 z" style="fill:#353535;fill-opacity:1"/>
</svg>
